Catalina-light/actions/22/dynamic-amarok.svg

<svg xmlns="http://www.w3.org/2000/svg" viewBox="0 0 22 22">
  <defs id="defs3051">
    <style type="text/css" id="current-color-scheme">
      .ColorScheme-Text {
        color:#4d4d4d
      }
      </style>
  </defs>
 <path 
     style="fill:currentColor;fill-opacity:1;stroke:none"      
	 class="ColorScheme-Text"
        d="M 11 3 C 6.568 3 3 6.568 3 11 C 3 15.432 6.568 19 11 19 C 15.432 19 19 15.432 19 11 C 19 6.568 15.432 3 11 3 z M 14 7 L 16 8.5 L 14 10 L 14 9 L 12.240234 9 C 12.24118 9.0079 11.404291 10.045972 10.628906 11.013672 L 12.240234 13 L 14 13 L 14 12 L 16 13.5 L 14 15 L 14 14 L 11.761719 14 C 11.761719 14 10.868772 12.881128 10 11.798828 C 9.131397 12.881128 8.2382812 14 8.2382812 14 L 6 14 L 6 13 L 7.7597656 13 L 9.3710938 11.013672 C 8.5955576 10.045972 7.7588201 9.01 7.7597656 9 L 6 9 L 6 8 L 8.1855469 8 L 10 10.238281 L 11.814453 8 L 14 8 L 14 7 z "
     />
</svg>

<svg viewBox="0 0 22 22" xmlns="http://www.w3.org/2000/svg">
<defs>
<style id="current-color-scheme" type="text/css">.ColorScheme-Text {
        color:#4d4d4d
      }</style>
</defs>
<path class="ColorScheme-Text" d="m11 3c-4.432 0-8 3.568-8 8s3.568 8 8 8 8-3.568 8-8-3.568-8-8-8zm3 4 2 1.5-2 1.5v-1h-1.7598c9.46e-4 0.0079-0.83594 1.046-1.6113 2.0137l1.6113 1.9863h1.7598v-1l2 1.5-2 1.5v-1h-2.2383s-0.89295-1.1189-1.7617-2.2012c-0.8686 1.0823-1.7617 2.2012-1.7617 2.2012h-2.2383v-1h1.7598l1.6113-1.9863c-0.77554-0.9677-1.6123-2.0037-1.6113-2.0137h-1.7598v-1h2.1855l1.8145 2.2383 1.8145-2.2383h2.1855v-1z" fill="currentColor"/>
</svg>
